packages/picasso/src/Icon/svg/verificationBadge24.svg

<svg fill="none" xmlns="http://www.w3.org/2000/svg" viewBox="0 0 26 26">
  <path fill-rule="evenodd" clip-rule="evenodd" d="M14.2971 1.16844c-.7475-.637023-1.8469-.637023-2.5945 0L9.5307 3.01936c-.32032.27298-.7186.43796-1.13813.47144l-2.8446.227c-.97902.07812-1.75644.85554-1.83457 1.83456l-.227 2.8446c-.03348.41953-.19845.81781-.47143 1.13814L1.16405 11.707c-.637028.7476-.637027 1.847 0 2.5945l1.85092 2.172c.27298.3203.43795.7186.47143 1.1381l.227 2.8446c.07813.979.85555 1.7564 1.83457 1.8346l2.84459.227c.41954.0334.81782.1984 1.13814.4714l2.1719 1.8509c.7476.637 1.847.637 2.5945 0l2.172-1.8509c.3203-.273.7186-.438 1.1381-.4714l2.8446-.227c.979-.0782 1.7564-.8556 1.8346-1.8346l.227-2.8446c.0334-.4195.1984-.8178.4714-1.1381l1.8509-2.172c.637-.7475.637-1.8469 0-2.5945l-1.8509-2.1719c-.273-.32033-.438-.71861-.4714-1.13814l-.227-2.8446c-.0782-.97902-.8556-1.75644-1.8346-1.83456l-2.8446-.227c-.4195-.03348-.8178-.19846-1.1381-.47144l-2.172-1.85092ZM11.5677 13.8366l5.6842-5.65171 2.0032 1.99031-7.6874 7.6434-2.00322-1.9903-2.82196-2.8066 2.00318-1.9931 2.822 2.808Z" fill="#000"/>
</svg>

<svg width="24px" height="24px" viewBox="0 0 26 26" fill="none" xmlns="http://www.w3.org/2000/svg">
    <path fill-rule="evenodd" clip-rule="evenodd"
        d="M14.2971 1.16844C13.5496 0.531417 12.4502 0.531417 11.7026 1.16844L9.5307 3.01936C9.21038 3.29234 8.8121 3.45732 8.39257 3.4908L5.54797 3.7178C4.56895 3.79592 3.79153 4.57334 3.7134 5.55236L3.4864 8.39696C3.45292 8.81649 3.28795 9.21477 3.01497 9.5351L1.16405 11.707C0.527022 12.4546 0.527023 13.554 1.16405 14.3015L3.01497 16.4735C3.28795 16.7938 3.45292 17.1921 3.4864 17.6116L3.7134 20.4562C3.79153 21.4352 4.56895 22.2126 5.54797 22.2908L8.39256 22.5178C8.8121 22.5512 9.21038 22.7162 9.5307 22.9892L11.7026 24.8401C12.4502 25.4771 13.5496 25.4771 14.2971 24.8401L16.4691 22.9892C16.7894 22.7162 17.1877 22.5512 17.6072 22.5178L20.4518 22.2908C21.4308 22.2126 22.2082 21.4352 22.2864 20.4562L22.5134 17.6116C22.5468 17.1921 22.7118 16.7938 22.9848 16.4735L24.8357 14.3015C25.4727 13.554 25.4727 12.4546 24.8357 11.707L22.9848 9.5351C22.7118 9.21477 22.5468 8.81649 22.5134 8.39696L22.2864 5.55236C22.2082 4.57334 21.4308 3.79592 20.4518 3.7178L17.6072 3.4908C17.1877 3.45732 16.7894 3.29234 16.4691 3.01936L14.2971 1.16844ZM11.5677 13.8366L17.2519 8.18489L19.2551 10.1752L11.5677 17.8186L9.56448 15.8283L6.74252 13.0217L8.7457 11.0286L11.5677 13.8366Z"
        fill="#204ECF" />
</svg>
